X:1
T:Auctoritate Saeculi, LM
T:Auctoritate Saeculi, LM
T:Angers Church Tune
T:Public Domain Courtesy of the Cyber Hymnal™
C:Angers Church Tune
Z:Public Domain
Z:Courtesy of the Cyber Hymnal™
%%score ( 1 2 ) ( 3 4 )
L:1/8
Q:1/4=125
M:3/4
K:Ab
V:1 treble 
V:2 treble 
V:3 bass 
V:4 bass 
V:1
 C2 | [CF]4 [FA]2 | [EG]4 [CF]2 | ([EG]2 [DF]2) [CE]2 | [CF]4 [CF]2 | [FA]4 [GB]2 | [Ac]4 A2 | %7
 [FB]4 [GB]2 | [Ac]4 [FA]2 | [Ac]4 [GB]2 | [Gc]4 [FA]2 | (B2 A2) [EG]2 | [DF]4 [A,C]2 | %13
 [DF]4 [EA]2 | [EG]4 [CF]2 | ([EG]2 [DF]2) [CE]2 | [A,CF]4 |] %17
V:2
 C2 | x6 | x6 | x6 | x6 | x6 | x6 | x6 | x6 | x6 | x6 | F4 x2 | x6 | x6 | x6 | x6 | x4 |] %17
V:3
 [F,,F,A,]2 | [F,,A,]4 [F,C]2 | [C,C]4 [F,C]2 | ([C,C]2 [D,A,]2) A,2 | [F,A,]4 [F,A,]2 | %5
 [F,C]4 [E,E]2 | [A,,E]4 [C,E]2 | D,4 [E,E]2 | [A,,E]4 [D,D]2 | [A,,E]4 [E,E]2 | [C,E]4 [F,C]2 | %11
 [B,,D]4 C,2 | [D,A,]4 F,2 | [D,A,]4 [A,,C]2 | [E,B,]4 [F,A,]2 | ([C,C]2 [D,A,]2) [A,,A,]2 | %16
 [F,,F,]4 |] %17
V:4
 x2 | x6 | x6 | x4 A,2 | x6 | x6 | x6 | D,4 x2 | x6 | x6 | x6 | x4 C,2 | x4 F,2 | x6 | x6 | x6 | %16
 x4 |] %17

